flaticon/music/electric-guitar-1.svg

<svg xmlns="http://www.w3.org/2000/svg" width="32" height="32" viewBox="0 0 24 24">
    <path d="M 23.886719 0.886719 C 23.675781 0.261719 23.136719 -0.0585938 22.402344 0.0078125 C 22.375 0.0117188 21.78125 0.0664062 20.933594 0.332031 L 20.71875 0.117188 C 20.644531 0.0429688 20.542969 0 20.4375 0 L 19.636719 0 C 19.53125 0 19.429688 0.0429688 19.351562 0.117188 L 18.953125 0.515625 C 18.878906 0.59375 18.835938 0.695312 18.835938 0.800781 L 18.835938 1.296875 C 18.726562 1.363281 18.617188 1.433594 18.511719 1.507812 L 18.320312 1.316406 C 18.242188 1.242188 18.140625 1.199219 18.035156 1.199219 L 17.234375 1.199219 C 17.128906 1.199219 17.027344 1.242188 16.953125 1.316406 L 16.554688 1.71875 C 16.476562 1.792969 16.4375 1.894531 16.4375 2 L 16.4375 2.800781 C 16.4375 2.90625 16.476562 3.007812 16.554688 3.082031 L 16.699219 3.230469 C 16.578125 3.449219 16.507812 3.6875 16.480469 3.929688 L 11.0625 10.242188 L 10.308594 9.53125 C 10.1875 9.414062 10.003906 9.386719 9.851562 9.464844 L 0.25 14.445312 C 0.09375 14.527344 0.0117188 14.699219 0.0429688 14.871094 L 1.078125 20.472656 C 1.105469 20.625 1.222656 20.75 1.375 20.789062 C 2.90625 21.167969 4.054688 22.257812 4.449219 23.703125 C 4.496094 23.878906 4.65625 24 4.835938 24 L 10.355469 24 C 10.523438 24 10.671875 23.894531 10.730469 23.738281 L 14.410156 13.738281 C 14.46875 13.589844 14.425781 13.417969 14.308594 13.308594 L 13.359375 12.410156 L 13.972656 11.699219 C 13.984375 11.691406 14 11.683594 14.011719 11.675781 C 14.039062 11.648438 14.054688 11.617188 14.070312 11.585938 L 17.171875 8.007812 C 17.175781 8.003906 17.179688 8.003906 17.183594 8 C 17.191406 7.992188 17.191406 7.984375 17.199219 7.976562 L 18.753906 6.183594 C 18.851562 6.167969 18.945312 6.144531 19.042969 6.113281 C 19.28125 6.035156 19.511719 5.917969 19.722656 5.769531 C 20.046875 5.539062 20.292969 5.191406 20.421875 4.792969 C 20.4375 4.738281 20.453125 4.679688 20.46875 4.621094 C 20.550781 4.328125 20.636719 4.03125 20.960938 3.730469 C 21.117188 3.582031 21.535156 3.414062 21.839844 3.292969 L 21.988281 3.230469 C 22.039062 3.210938 22.132812 3.195312 22.230469 3.175781 C 22.558594 3.117188 23.054688 3.03125 23.488281 2.5625 C 23.921875 2.09375 24.074219 1.453125 23.886719 0.886719 Z M 19.800781 0.800781 L 20.269531 0.800781 L 20.4375 0.964844 L 20.4375 1.433594 L 20.269531 1.601562 L 19.800781 1.601562 L 19.636719 1.433594 L 19.636719 0.964844 Z M 17.234375 2.164062 L 17.402344 2 L 17.871094 2 L 18.035156 2.164062 L 18.035156 2.632812 L 17.871094 2.800781 L 17.402344 2.800781 L 17.234375 2.632812 Z M 16.871094 7.132812 L 15.742188 6.019531 L 16.632812 4.980469 C 16.6875 5.109375 16.753906 5.230469 16.832031 5.347656 C 17.078125 5.703125 17.40625 5.957031 17.773438 6.09375 Z M 15.285156 8.960938 L 14.171875 7.847656 L 15.21875 6.628906 L 16.347656 7.738281 Z M 13.703125 10.789062 L 12.601562 9.675781 L 13.648438 8.457031 L 14.761719 9.570312 Z M 11.292969 13.574219 L 10.691406 12.496094 L 10.492188 12.136719 L 11.40625 11.09375 C 11.425781 11.070312 11.433594 11.046875 11.445312 11.023438 L 12.078125 10.285156 L 13.175781 11.394531 Z M 12.84375 13.023438 L 13.570312 13.710938 L 10.074219 23.199219 L 5.132812 23.199219 C 4.617188 21.695312 3.40625 20.554688 1.820312 20.078125 L 0.882812 15.019531 L 9.96875 10.304688 L 10.542969 10.847656 L 9.707031 11.820312 L 9.707031 11.824219 L 9.703125 11.824219 C 9.6875 11.84375 9.679688 11.863281 9.667969 11.882812 C 9.660156 11.898438 9.644531 11.910156 9.640625 11.929688 C 9.628906 11.949219 9.628906 11.972656 9.621094 11.992188 C 9.617188 12.011719 9.609375 12.027344 9.609375 12.046875 C 9.605469 12.066406 9.609375 12.089844 9.613281 12.113281 C 9.613281 12.128906 9.609375 12.148438 9.613281 12.164062 C 9.621094 12.207031 9.636719 12.242188 9.65625 12.28125 L 10.871094 14.460938 C 10.933594 14.578125 11.046875 14.652344 11.175781 14.667969 C 11.191406 14.667969 11.207031 14.667969 11.21875 14.667969 C 11.222656 14.667969 11.226562 14.664062 11.230469 14.664062 C 11.285156 14.664062 11.332031 14.652344 11.378906 14.632812 C 11.382812 14.632812 11.390625 14.628906 11.394531 14.625 C 11.441406 14.601562 11.484375 14.574219 11.519531 14.53125 C 11.519531 14.53125 11.519531 14.53125 11.523438 14.53125 L 11.539062 14.511719 Z M 22.902344 2.019531 C 22.652344 2.289062 22.367188 2.339844 22.09375 2.390625 C 21.949219 2.414062 21.816406 2.4375 21.6875 2.492188 L 21.542969 2.550781 C 21.136719 2.710938 20.679688 2.894531 20.414062 3.144531 C 19.929688 3.597656 19.792969 4.082031 19.703125 4.402344 C 19.6875 4.457031 19.675781 4.503906 19.660156 4.550781 C 19.585938 4.785156 19.445312 4.988281 19.261719 5.113281 C 19.117188 5.21875 18.960938 5.296875 18.792969 5.351562 C 18.722656 5.375 18.648438 5.394531 18.578125 5.402344 C 18.5625 5.402344 18.542969 5.398438 18.527344 5.398438 C 18.214844 5.425781 17.914062 5.3125 17.675781 5.085938 C 17.40625 4.832031 17.253906 4.464844 17.265625 4.109375 C 17.265625 4.097656 17.261719 4.089844 17.261719 4.082031 C 17.273438 3.921875 17.3125 3.757812 17.40625 3.601562 L 18.203125 3.601562 L 18.320312 3.484375 L 18.71875 3.082031 L 18.835938 2.964844 L 18.835938 2.253906 C 18.933594 2.183594 19.027344 2.121094 19.125 2.054688 L 19.46875 2.398438 L 20.601562 2.398438 L 21.234375 1.765625 L 21.234375 1.074219 C 21.960938 0.855469 22.464844 0.808594 22.472656 0.804688 C 22.933594 0.761719 23.0625 0.949219 23.125 1.136719 C 23.21875 1.421875 23.132812 1.769531 22.902344 2.019531 Z M 22.902344 2.019531"/>
    <path d="M 9.347656 15.722656 L 6.398438 18.757812 L 6.117188 18.480469 L 9.074219 15.480469 C 9.226562 15.324219 9.226562 15.070312 9.070312 14.914062 C 8.910156 14.757812 8.65625 14.761719 8.503906 14.917969 L 5.554688 17.914062 L 5.269531 17.628906 L 8.625 14.183594 C 8.78125 14.023438 8.777344 13.769531 8.617188 13.617188 C 8.460938 13.464844 8.207031 13.464844 8.050781 13.625 L 4.703125 17.0625 L 4.140625 16.5 C 4.0625 16.425781 3.953125 16.382812 3.847656 16.382812 C 3.742188 16.386719 3.636719 16.433594 3.5625 16.511719 L 2.433594 17.734375 C 2.285156 17.894531 2.292969 18.136719 2.441406 18.289062 L 5.835938 21.683594 C 5.914062 21.757812 6.015625 21.800781 6.121094 21.800781 C 6.121094 21.800781 6.125 21.800781 6.128906 21.800781 C 6.238281 21.800781 6.339844 21.753906 6.414062 21.671875 L 7.546875 20.449219 C 7.691406 20.292969 7.6875 20.046875 7.535156 19.894531 L 6.964844 19.324219 L 9.921875 16.277344 C 10.078125 16.121094 10.074219 15.867188 9.914062 15.710938 C 9.757812 15.558594 9.503906 15.5625 9.347656 15.722656 Z M 6.109375 20.824219 L 3.28125 17.996094 L 3.871094 17.359375 L 6.695312 20.1875 Z M 6.109375 20.824219"/>
</svg>

<svg xmlns="http://www.w3.org/2000/svg" width="32" height="32" viewBox="0 0 24 24">
    <path d="M23.887.887c-.211-.625-.75-.946-1.485-.88-.027.005-.62.06-1.468.325l-.215-.215A.4.4 0 0 0 20.437 0h-.8a.416.416 0 0 0-.285.117l-.399.399a.416.416 0 0 0-.117.285v.496c-.11.066-.219.137-.324.21l-.192-.19a.416.416 0 0 0-.285-.118h-.8a.4.4 0 0 0-.282.117l-.398.403a.384.384 0 0 0-.117.281v.8c0 .106.039.208.117.282l.144.148a1.873 1.873 0 0 0-.219.7l-5.418 6.312-.753-.71a.397.397 0 0 0-.457-.067L.25 14.445a.398.398 0 0 0-.207.426l1.035 5.602a.404.404 0 0 0 .297.316c1.531.379 2.68 1.469 3.074 2.914a.4.4 0 0 0 .387.297h5.52a.401.401 0 0 0 .374-.262l3.68-10a.395.395 0 0 0-.101-.43l-.95-.898.614-.71c.011-.009.027-.016.039-.024a.323.323 0 0 0 .058-.09l3.102-3.578c.004-.004.008-.004.012-.008.007-.008.007-.016.015-.023l1.555-1.793c.098-.016.191-.04.289-.07a2.59 2.59 0 0 0 .68-.344 1.922 1.922 0 0 0 .746-1.149c.082-.293.168-.59.492-.89.156-.149.574-.317.879-.438l.148-.063c.051-.02.145-.035.242-.054.329-.059.825-.145 1.258-.614.434-.468.586-1.109.399-1.675zM19.8.8h.469l.168.164v.469l-.168.168h-.47l-.163-.168v-.47zm-2.567 1.363L17.402 2h.47l.163.164v.469l-.164.168h-.469l-.168-.168zm-.363 4.969L15.742 6.02l.89-1.04c.055.13.122.25.2.368.246.355.574.609.941.746zM15.285 8.96l-1.113-1.113 1.047-1.22 1.129 1.11zm-1.582 1.828l-1.101-1.113 1.046-1.219 1.114 1.113zm-2.41 2.785l-.602-1.078-.199-.36.914-1.042c.02-.024.028-.047.04-.07l.632-.739 1.098 1.11zm1.55-.55l.727.687-3.496 9.488H5.133c-.516-1.504-1.727-2.644-3.313-3.12l-.937-5.06 9.086-4.714.574.543-.836.972v.004h-.004c-.015.02-.023.04-.035.059-.008.015-.023.027-.027.047-.012.02-.012.043-.02.062-.004.02-.012.035-.012.055-.004.02 0 .043.004.066 0 .016-.004.035 0 .051a.423.423 0 0 0 .043.117l1.215 2.18a.396.396 0 0 0 .305.207h.043c.004 0 .008-.004.011-.004a.374.374 0 0 0 .165-.039.363.363 0 0 0 .125-.094h.003l.016-.02zM22.904 2.02c-.25.27-.536.32-.81.37a1.72 1.72 0 0 0-.405.102l-.145.059c-.406.16-.863.344-1.129.594-.484.453-.621.937-.71 1.257-.017.055-.028.102-.044.149a1.067 1.067 0 0 1-.398.562 1.66 1.66 0 0 1-.469.239c-.07.023-.145.043-.215.05-.015 0-.035-.004-.05-.004a1.088 1.088 0 0 1-.852-.312 1.308 1.308 0 0 1-.41-.977c0-.011-.004-.02-.004-.027.011-.16.05-.324.144-.48h.797l.117-.118.399-.402.117-.117v-.711c.098-.07.191-.133.289-.2l.344.344h1.133l.632-.632v-.692c.727-.219 1.23-.265 1.239-.27.46-.042.59.145.652.333.094.285.008.633-.223.883zm0 0"/>
    <path d="M9.348 15.723l-2.95 3.035-.28-.278 2.956-3a.4.4 0 0 0-.57-.563l-2.95 2.997-.284-.285 3.355-3.445a.4.4 0 0 0-.574-.559l-3.348 3.438-.562-.563a.435.435 0 0 0-.293-.117.42.42 0 0 0-.285.129l-1.13 1.222a.401.401 0 0 0 .008.555l3.395 3.395c.078.074.18.117.285.117h.008c.11 0 .21-.047.285-.13l1.133-1.222a.401.401 0 0 0-.012-.554l-.57-.57 2.957-3.048a.397.397 0 0 0-.008-.566.401.401 0 0 0-.566.012zm-3.239 5.101l-2.828-2.828.59-.637 2.824 2.828zm0 0"/>
</svg>
